X:1
T:O come, let us lift up our voice - Mundy
T:#
%%score [ 1 2 3 ]
L:1/8
Q:1/4=150
M:4/2
K:C
V:1 treble nm="Soprano " snm="S"
V:2 treble nm="Alto" snm="A"
V:3 treble-8 nm="Tenor" snm="T"
V:1
"^Psalm 95 vv 1-2 (metrical)\nSternhold & Hopkins""^O come, let us lift up our voice""^John Mundy\n(c. 1555-1630)" z16 | %1
w: |
 z16 | z4 z4 G6 F2 | E2 F2 G4 A4 G4 |[M:4/2] c8 A4 c4- | c2 B2 (A2 G2) A8 | B8 z4 c4 | %7
w: |O come,|let us lift up our|voice, let us|* lift up * our|voice, And|
 d6 c2 B2 (A2 B4) | c6 B2 (A2 G2) ^F4 | (G2 A2 B4) c4 B4 | z4 z4 A4 (d4- | %11
w: sing un- to the *|Lord, and sing * un-|to * * the Lord,|and sing|
 d2 c2 B2) (A2 G4) F2 (E2 | D2 C2 D4) E4 G4 | c6 A2 B2 c2 d4 | c4 B4 G4 c4 | B4 A4 G4 ^F4 | %16
w: * * * un\- * to the|* * * Lord: In|him our rock of health|re- joice, in him|our rock of health|
 G8 F4 E4 | D8 E4 G4- | G4 (^F4 G8) | G8 z4 z4 | z4 c4 A2 G2 A2 B2 | c6 d2 e6 e2 | %22
w: re- joice, let|us with one|* ac\- *|cord.|Yea, let us come be-|fore his face, To|
 d2 c2 B2 A2 B4 B4 | c2 d2 e4 A2 d4 c2 | B4 A4 B2 E2 G4 | z2 A2 B2 c2 d4 G2 c2- | %26
w: give him thanks and praise, In|sing- ing psalms un- to his|grace, un- to his grace,|in sing- ing psalms un- to|
 c2 B2 A4 G4 ^F2 (E2 | ^F4) G4 A6 G2 | _B2 A4 c2 =B2 A4 (G2 | %29
w: * his grace, un- to his|* grace, Let us|be glad al- ways, glad al\-|
 ^F2 E2) G2 c2 B2 A2[Q:1/4=148] G2[Q:1/4=146] =F2 | %30
w: * * ways, let us be glad al-|
[Q:1/4=144] E2[Q:1/4=142] F2[Q:1/4=137] G8[Q:1/4=131] G4 |[Q:1/4=130] G16 |] %32
w: ways, be glad al-|ways.|
V:2
 D6 C2 B,2 C2 D4 | E4 D4 G6 F2 | E2 F2 G4 E6 D2 | C8 E6 D2 |[M:4/2] F4 E4 F4 (A4- | %5
w: O come, let us lift|up our voice, come|let us lift up our|voice, O come,|let us lift up|
 A2 G2) (G8 ^F4) | G4 G4 A6 G2 | ^F2 (E2 D4) G8 | z4 C4 D6 C2 | B,2 (A,2 G,4) C4 G4 | %10
w: * * our *|voice, And sing un-|to the * Lord,|and sing un-|to the * Lord, and|
 A6 G2 ^F2 (E2 F4) | G4 D4 E4 (D2 C2) | (B,2 C4) B,2 C8 | C4 F4 (D2 E2 F2 D2) | E2 (F2 G4) E6 (F2 | %15
w: sing un- to the *|Lord, and sing un *|to * the Lord:|In him our * * *|rock of * health re\-|
 G4) F4 (D2 E2 C4) | B,2 (CD E4) D4 C4 | A,4 B,4 C2 (B,2 A,2 G,2 | B,2 C2 A,4) G,8 | %19
w: * joice, in * *|him re\- * * joice, Let|us with one ac\- * *|* * * cord.|
 z4 D4 B,2 A,2 B,2 C2 | D4 E4 F4 E4 | A4 A4 G6 c2 | B2 A2 A8 ^G4 | A4 E4 F2 G2 A4 | %24
w: Yea, let us come be-|fore his face, be-|fore his face, And|give him thanks and|praise: In sing- ing psalms|
 D2 G4 ^F2 G4 z2 D2 | E2 F2 G4 F4 E4 | D4 F2 E4 D4 ^C2 | D6 E2 F4 C4 | D4 C4 D4 (C2 B,2) | %29
w: un- to his grace, in|sing- ing psalms un- to|his grace, un- to his|grace, Let us be|glad al- ways, al\- *|
 A,4 G,6 A,2 B,4 | C2 (D2 E4 D8) | E16 |] %32
w: ways, let us be|glad al\- * *|ways.|
V:3
 z16 | G6 F2 E2 F2 G4 | A4 G4 c8 | z4 z4 c6 B2 |[M:4/2][K:treble-8] (A2 B2 c4) d4 A4 | e8 d8 | %6
w: |O come, let us lift|up our voice,|O come,|let * * us lift|up our|
 G8 z4 z4 | z4 z4 z4 G4 | A6 G2 ^F2 (E2 D4) | G4 d4 e6 d2 | c2 (B2 A4) d4 D4 | G6 F2 E4 (F4 | %12
w: voice,|And|sing un- to the *|Lord, and sing un-|to the * Lord, and|sing un- to the|
 G8) C8 | z4 z4 z4 z4 | z4 G4 c6 A2 | B2 (c2 d4) B2 (c2 A4) | G4 C4 D4 E4 | F4 (G4 E8) | D8 z4 c4 | %19
w: * Lord:||In him our|rock of * health re\- *|joice, Let us with|one ac\- *|cord. Yea,|
 B2 A2 B2 c2 d4 G4 | B4 A4 d4 c2 B2 | A4 f4 e4 c4 | d4 f4 e2 (d2 e4) | A8 z4 A4 | %24
w: let us come be- fore his|face, let us come be-|fore his face, To|give him thanks and *|praise: In|
 B2 c2 d4 G2 c4 B2 | (A4 G2 E2) D4 E4 | F2 (G2 A2) c4 (B2 A4) | D4 G4 F6 E2 | D4 F2 E2 D4 z4 | %29
w: sing- ing psalms un- to his|* * * grace, In|sing- ing * psalms un\- *|to his grace, un\-|* to his grace,|
 z2 c2 B2 A2 G2 (F2 E2 D2) | C4 c6 (BA B4) | c16 |] %32
w: let us be glad al\- * *|ways, glad al\- * *|ways.|

